src/assets/base2.svg

<svg width="117" height="117" viewBox="0 0 117 117" fill="none" xmlns="http://www.w3.org/2000/svg">
<g filter="url(#filter0_d_294_30009)">
<path fill-rule="evenodd" clip-rule="evenodd" d="M55.4071 0.298956C49.395 1.61565 44.6536 6.72357 43.8393 12.7607L43.6591 14.0971H44.6547C45.2021 14.0971 46.3889 13.9074 47.292 13.6755C53.1252 12.1774 57.6241 6.7133 57.6398 1.10762C57.6435 -0.184275 57.632 -0.188337 55.4071 0.298956ZM59.9 1.10762C59.8387 1.60753 59.7286 2.49017 59.6554 3.06941C59.4742 4.50327 58.5101 7.16852 57.6266 8.67851C57.2257 9.3638 56.1139 10.7117 55.1558 11.6741C53.6969 13.1396 53.057 13.601 51.2164 14.5143C48.9157 15.6558 46.8278 16.2252 44.9196 16.2317C43.8974 16.2351 43.8016 16.2772 43.8016 16.7249C43.8016 17.7329 44.4741 19.827 45.4183 21.7595C47.2019 25.41 50.5349 28.1155 54.6633 29.2643C56.972 29.9066 56.9512 29.9133 57.1058 28.4764C57.3668 26.0491 57.8796 24.2201 58.8598 22.2222C60.1888 19.5127 62.8321 16.7812 65.4277 15.4356C67.3578 14.4349 69.6082 13.7655 71.7745 13.5476L73.2357 13.4007L73.1007 12.3786C72.5873 8.49356 69.4741 4.03052 65.877 2.02319C64.2782 1.13114 61.5968 0.198889 60.6292 0.198889C60.0619 0.198889 60.0025 0.273084 59.9 1.10762ZM13.3504 14.2312C9.52404 15.8233 6.6497 18.5309 4.89206 22.1989C4.24087 23.5575 4.09862 24.1079 4.02899 25.5364C3.95084 27.1362 3.9913 27.337 4.65526 28.6368C5.32157 29.9415 6.51661 31.0908 24.1655 47.3994C34.5059 56.9545 43.035 64.7721 43.1191 64.7721C43.2032 64.7721 45.898 62.1343 49.1073 58.9101L54.9427 53.048L54.4295 52.4369C54.1473 52.1008 46.3322 43.55 37.0625 33.4351C18.2712 12.9303 19.2588 13.8696 16.3398 13.7313C14.9746 13.6667 14.5276 13.7415 13.3504 14.2312ZM99.1303 13.8788C97.5587 14.3552 96.543 15.3122 89.8259 22.6445C86.0039 26.8165 77.7744 35.792 71.5377 42.5904C65.301 49.3885 60.1984 55.0447 60.1984 55.1593C60.1984 55.2739 60.7725 56.0543 61.4743 56.8934C63.121 58.8628 63.916 59.9818 67.0333 64.7187C68.4457 66.8648 69.668 68.6209 69.7498 68.6209C69.9604 68.6209 108.963 32.583 110.798 30.6933C111.944 29.5122 112.404 28.8572 112.687 28.0017C114.23 23.3366 109.884 16.7508 103.603 14.2378C102.142 13.6534 100.349 13.5095 99.1303 13.8788ZM70.5262 15.9052C68.5529 16.2787 67.0118 16.9163 65.268 18.0801C63.3106 19.3868 61.8521 21.0997 60.7397 23.3982C59.7431 25.4577 59.3466 26.9512 59.3466 28.6473C59.3466 29.6676 59.3683 29.7059 59.9514 29.7059C60.9226 29.7059 63.6811 28.9271 64.916 28.3045C69.5775 25.9536 72.8411 21.3398 73.2257 16.556C73.2913 15.7399 73.2651 15.699 72.6557 15.6618C72.3043 15.6405 71.3461 15.7499 70.5262 15.9052ZM50.5611 60.4438C47.4289 63.5904 44.8663 66.2736 44.8663 66.4066C44.8663 66.7316 48.6932 70.0855 50.997 71.7796C54.1669 74.1105 53.1921 74.4838 58.893 68.7556L63.8382 63.7867L62.4194 61.7669C61.639 60.6561 60.5642 59.2182 60.0312 58.5714C58.9252 57.229 56.5408 54.7227 56.37 54.7227C56.3072 54.7227 53.6933 57.2973 50.5611 60.4438ZM60.4192 70.4304C57.9075 72.9543 55.896 75.0566 55.9493 75.1022C56.0025 75.1477 56.8125 75.6964 57.7495 76.3214C61.5857 78.8808 66.6496 82.8328 70.7392 86.4596C71.7932 87.3944 76.2212 91.7169 80.5789 96.0656L88.5022 103.972L87.8927 104.669C87.0987 105.577 86.9206 106.433 87.324 107.402C87.8953 108.775 89.5507 109.402 90.8199 108.726C91.7162 108.249 98.4793 101.305 98.7453 100.589C99.1024 99.6274 98.8298 98.6778 97.9821 97.9303C96.9459 97.0169 95.652 97.0055 94.6359 97.9014L93.9227 98.5301L86.144 90.6851C81.8658 86.3702 77.51 81.8776 76.4648 80.7016C73.2817 77.1206 69.5503 72.3345 66.5045 67.926C65.7124 66.7793 65.0467 65.8412 65.0252 65.8412C65.0035 65.8412 62.9309 67.9063 60.4192 70.4304ZM46.4634 73.4927C43.3125 77.7283 39.4816 81.9642 31.5877 89.942L23.0793 98.541L22.3599 97.9068C20.5561 96.3166 17.7073 97.8869 18.1396 100.233C18.2584 100.878 18.9202 101.66 21.9392 104.719C23.9498 106.757 25.8535 108.561 26.1697 108.729C27.4304 109.395 29.0941 108.775 29.6535 107.431C30.1437 106.253 30.0769 105.992 28.8465 104.275C28.6092 103.944 29.2117 103.263 34.1139 98.3216C43.403 88.9576 48.4189 84.3815 54.0762 80.1085C55.3351 79.1577 56.3654 78.2975 56.3654 78.1972C56.3654 78.0969 55.1916 77.2553 53.7568 76.3269C52.322 75.3985 50.3744 74.0547 49.4287 73.3405C48.4828 72.6264 47.6683 72.0465 47.6186 72.0518C47.5688 72.0572 47.049 72.7055 46.4634 73.4927Z" fill="#00AACB"/>
</g>
<defs>
<filter id="filter0_d_294_30009" x="0" y="0" width="117" height="117" filterUnits="userSpaceOnUse" color-interpolation-filters="sRGB">
<feFlood flood-opacity="0" result="BackgroundImageFix"/>
<feColorMatrix in="SourceAlpha" type="matrix" values="0 0 0 0 0 0 0 0 0 0 0 0 0 0 0 0 0 0 127 0" result="hardAlpha"/>
<feOffset dy="4"/>
<feGaussianBlur stdDeviation="2"/>
<feComposite in2="hardAlpha" operator="out"/>
<feColorMatrix type="matrix" values="0 0 0 0 0 0 0 0 0 0 0 0 0 0 0 0 0 0 0.25 0"/>
<feBlend mode="normal" in2="BackgroundImageFix" result="effect1_dropShadow_294_30009"/>
<feBlend mode="normal" in="SourceGraphic" in2="effect1_dropShadow_294_30009" result="shape"/>
</filter>
</defs>
</svg>

<svg xmlns="http://www.w3.org/2000/svg" width="117" height="117" fill="none" viewBox="0 0 117 117"><g filter="url(#a)"><path fill="#00aacb" fill-rule="evenodd" d="M55.407.299C49.395 1.616 44.654 6.724 43.84 12.761l-.18 1.336h.996c.547 0 1.734-.19 2.637-.421 5.833-1.499 10.332-6.963 10.348-12.568.004-1.292-.008-1.296-2.233-.809m4.493.809c-.061.5-.171 1.382-.245 1.961-.18 1.434-1.145 4.1-2.028 5.61-.401.685-1.513 2.033-2.471 2.995-1.46 1.466-2.099 1.927-3.94 2.84-2.3 1.142-4.388 1.711-6.296 1.718-1.023.003-1.118.045-1.118.493 0 1.008.672 3.102 1.616 5.034 1.784 3.651 5.117 6.357 9.245 7.505 2.309.643 2.288.65 2.443-.788.26-2.427.774-4.256 1.754-6.254 1.329-2.71 3.972-5.44 6.568-6.786a18 18 0 0 1 6.347-1.888l1.46-.147-.134-1.022c-.514-3.885-3.627-8.348-7.224-10.356C64.278 1.131 61.597.2 60.629.2c-.567 0-.626.074-.729.909M13.35 14.23c-3.826 1.592-6.7 4.3-8.458 7.968-.651 1.358-.793 1.909-.863 3.337-.078 1.6-.038 1.801.626 3.1.667 1.306 1.862 2.455 19.51 18.763 10.34 9.556 18.87 17.373 18.954 17.373s2.779-2.638 5.988-5.862l5.836-5.862-.514-.611c-.282-.336-8.097-8.887-17.367-19.002C18.273 12.93 19.26 13.87 16.34 13.731c-1.365-.064-1.812.01-2.99.5m85.78-.352c-1.571.476-2.587 1.433-9.304 8.766A49841 49841 0 0 1 71.538 42.59c-6.237 6.798-11.34 12.455-11.34 12.57 0 .114.575.894 1.276 1.733 1.647 1.97 2.442 3.089 5.56 7.826 1.412 2.146 2.634 3.902 2.716 3.902.21 0 39.213-36.038 41.048-37.928 1.146-1.18 1.606-1.836 1.889-2.691 1.543-4.665-2.803-11.251-9.084-13.764-1.461-.585-3.254-.729-4.473-.36m-28.604 2.026c-1.973.374-3.514 1.011-5.258 2.175-1.957 1.307-3.416 3.02-4.528 5.318-.997 2.06-1.393 3.553-1.393 5.25 0 1.02.021 1.058.604 1.058.972 0 3.73-.779 4.965-1.401 4.662-2.351 7.925-6.965 8.31-11.749.065-.816.04-.857-.57-.894-.352-.022-1.31.088-2.13.243m-19.965 44.54c-3.132 3.146-5.695 5.83-5.695 5.963 0 .325 3.827 3.678 6.131 5.373 3.17 2.33 2.195 2.704 7.896-3.024l4.945-4.97-1.419-2.02c-.78-1.11-1.855-2.548-2.388-3.195-1.106-1.342-3.49-3.848-3.661-3.848-.063 0-2.677 2.574-5.809 5.72m9.858 9.986c-2.511 2.524-4.523 4.627-4.47 4.672.053.046.864.594 1.8 1.22 3.837 2.559 8.9 6.51 12.99 10.138 1.054.934 5.482 5.257 9.84 9.606l7.923 7.906-.61.697c-.793.908-.971 1.764-.568 2.733.571 1.373 2.227 2 3.496 1.324.896-.477 7.66-7.421 7.925-8.137.357-.962.085-1.911-.763-2.659-1.036-.913-2.33-.925-3.346-.029l-.713.63-7.779-7.846c-4.278-4.315-8.634-8.807-9.68-9.983-3.182-3.581-6.914-8.367-9.96-12.776-.792-1.147-1.457-2.085-1.479-2.085s-2.094 2.065-4.606 4.59m-13.956 3.063c-3.15 4.235-6.981 8.471-14.875 16.449l-8.509 8.599-.72-.634c-1.803-1.59-4.652-.02-4.22 2.326.12.645.781 1.427 3.8 4.486 2.01 2.038 3.915 3.842 4.23 4.01 1.261.666 2.925.046 3.485-1.298.49-1.178.423-1.439-.808-3.156-.237-.331.366-1.012 5.268-5.953 9.289-9.364 14.305-13.94 19.962-18.213 1.26-.951 2.29-1.811 2.29-1.912s-1.174-.942-2.61-1.87c-1.434-.928-3.382-2.272-4.327-2.986-.946-.715-1.76-1.294-1.81-1.29-.05.006-.57.654-1.156 1.442" clip-rule="evenodd"/></g><defs><filter id="a" width="117" height="117" x="0" y="0" color-interpolation-filters="sRGB" filterUnits="userSpaceOnUse"><feFlood flood-opacity="0" result="BackgroundImageFix"/><feColorMatrix in="SourceAlpha" result="hardAlpha" values="0 0 0 0 0 0 0 0 0 0 0 0 0 0 0 0 0 0 127 0"/><feOffset dy="4"/><feGaussianBlur stdDeviation="2"/><feComposite in2="hardAlpha" operator="out"/><feColorMatrix values="0 0 0 0 0 0 0 0 0 0 0 0 0 0 0 0 0 0 0.25 0"/><feBlend in2="BackgroundImageFix" result="effect1_dropShadow_294_30009"/><feBlend in="SourceGraphic" in2="effect1_dropShadow_294_30009" result="shape"/></filter></defs></svg>
